svg/part/chef_hat_fill.svg

<svg xmlns="http://www.w3.org/2000/svg" width="24" height="24" viewBox="0 0 24 24"><g fill="none" fill-rule="evenodd"><path d="M24,0 L24,24 L0,24 L0,0 L24,0 Z M12.5935,23.2578 L12.5819,23.2595 L12.5109,23.295 L12.4919,23.2987 L12.4767,23.295 L12.4057,23.2595 C12.3958,23.2564 12.387,23.259 12.3821,23.2649 L12.378,23.2758 L12.3609,23.7031 L12.3659,23.7235 L12.3769,23.7357 L12.4805,23.8097 L12.4953,23.8136 L12.5071,23.8097 L12.6107,23.7357 L12.6233,23.7197 L12.6267,23.7031 L12.6096,23.2758 C12.6076,23.2657 12.601,23.2593 12.5935,23.2578 Z M12.8584,23.1453 L12.8445,23.1473 L12.6598,23.2397 L12.6499,23.2499 L12.6472,23.2611 L12.6651,23.6906 L12.6699,23.7034 L12.6784,23.7105 L12.8793,23.8032 C12.8914,23.8069 12.9022,23.803 12.9078,23.7952 L12.9118,23.7812 L12.8777,23.1665 C12.8753,23.1546 12.8674,23.147 12.8584,23.1453 Z M12.143,23.1473 C12.1332,23.1424 12.1222,23.1453 12.1156,23.1526 L12.1099,23.1665 L12.0758,23.7812 C12.0751,23.7927 12.0828,23.8019 12.0926,23.8046 L12.1083,23.8032 L12.3092,23.7105 L12.3186,23.7024 L12.3225,23.6906 L12.3404,23.2611 L12.3372,23.2485 L12.3278,23.2397 L12.143,23.1473 Z"/><path fill="#09244B" d="M12,3 C10.2719,3 8.75011,3.87649 7.85243,5.20706 C7.42503,5.07251 6.97051,5 6.5,5 C4.01472,5 2,7.01472 2,9.5 C2,11.4597 3.25202,13.1257 5,13.7437 L5,18 C5,19.6569 6.34315,21 8,21 L16,21 C17.6569,21 19,19.6569 19,18 L19,13.7437 C20.748,13.1257 22,11.4597 22,9.5 C22,7.01472 19.9853,5 17.5,5 C17.0295,5 16.575,5.07251 16.1476,5.20706 C15.2499,3.8765 13.7281,3 12,3 Z M7,18 L7,17 L17,17 L17,18 C17,18.5523 16.5523,19 16,19 L8,19 C7.44772,19 7,18.5523 7,18 Z"/></g></svg>

<svg xmlns="http://www.w3.org/2000/svg" width="24" height="24"><g fill="none" fill-rule="evenodd"><path d="M24 0v24H0V0zM12.594 23.258l-.012.002-.071.035-.02.004-.014-.004-.071-.036c-.01-.003-.019 0-.024.006l-.004.01-.017.428.005.02.01.013.104.074.015.004.012-.004.104-.074.012-.016.004-.017-.017-.427c-.002-.01-.009-.017-.016-.018m.264-.113-.014.002-.184.093-.01.01-.003.011.018.43.005.012.008.008.201.092c.012.004.023 0 .029-.008l.004-.014-.034-.614c-.003-.012-.01-.02-.02-.022m-.715.002a.023.023 0 0 0-.027.006l-.006.014-.034.614c0 .012.007.02.017.024l.015-.002.201-.093.01-.008.003-.011.018-.43-.003-.012-.01-.01z"/><path fill="#09244B" d="M12 3c-1.728 0-3.25.876-4.148 2.207A4.5 4.5 0 0 0 5 13.744V18a3 3 0 0 0 3 3h8a3 3 0 0 0 3-3v-4.256a4.501 4.501 0 0 0-2.852-8.537A4.995 4.995 0 0 0 12 3M7 18v-1h10v1a1 1 0 0 1-1 1H8a1 1 0 0 1-1-1"/></g></svg>
